X: 3
T: The Carraroe
R: jig
M: 6/8
L: 1/8
K: Dmaj
|:DED F2A|dfe d2A| B/c/dB Adf|afd e2f|
DED F2A|dfe d2A|B/c/dB AFA| dAF E2D:||
|:dfa afa|bge edB|dfa afa|bge efe|
dfa afa|bge edB| d2B AFA|1 dAF E2D:|2 dAF E2F||


Tune 771	Setting 771

